src/images/icons/location.svg

<?xml version="1.0" encoding="UTF-8"?>
<svg width="12px" height="18px" viewBox="0 0 12 18" version="1.1" xmlns="http://www.w3.org/2000/svg" xmlns:xlink="http://www.w3.org/1999/xlink">
    <!-- Generator: Sketch 49.2 (51160) - http://www.bohemiancoding.com/sketch -->
    <title>location</title>
    <desc>Created with Sketch.</desc>
    <g id="Symbols" stroke="none" stroke-width="1" fill="none" fill-rule="evenodd">
        <g id="Elements-/-Profile-/-Card-/-05" transform="translate(-77.000000, -113.000000)">
            <g id="Group-5" transform="translate(0.000000, 32.000000)">
                <g id="Group-8" transform="translate(17.000000, 0.000000)">
                    <g id="Component-/-Icons-/-S-/-Point-Border" transform="translate(60.000000, 81.000000)">
                        <mask id="mask-2" fill="white">
                            <path d="M6.26440992,15.7307186 C6.93347423,14.9063358 7.60264855,14.0149 8.22586297,13.0912072 C9.04275365,11.8804586 9.71689511,10.7072235 10.1989679,9.61309034 C10.7233153,8.42300914 11,7.36963087 11,6.5 C11,3.73523729 8.76476271,1.5 6,1.5 C3.23523729,1.5 1,3.73523729 1,6.5 C1,7.36963087 1.27668472,8.42300914 1.80103206,9.61309034 C2.28310489,10.7072235 2.95724635,11.8804586 3.77413703,13.0912072 C4.39735145,14.0149 5.06652577,14.9063358 5.73559008,15.7307186 C5.82640108,15.8426108 5.91464951,15.9500883 6,16.0529026 C6.08535049,15.9500883 6.17359892,15.8426108 6.26440992,15.7307186 Z M6,0.666666667 C9.225,0.666666667 11.8333333,3.275 11.8333333,6.5 C11.8333333,10.875 6,17.3333333 6,17.3333333 C6,17.3333333 0.166666667,10.875 0.166666667,6.5 C0.166666667,3.275 2.775,0.666666667 6,0.666666667 Z M6,8.16666667 C6.92047458,8.16666667 7.66666667,7.42047458 7.66666667,6.5 C7.66666667,5.57952542 6.92047458,4.83333333 6,4.83333333 C5.07952542,4.83333333 4.33333333,5.57952542 4.33333333,6.5 C4.33333333,7.42047458 5.07952542,8.16666667 6,8.16666667 Z M6,9 C4.61928813,9 3.5,7.88071187 3.5,6.5 C3.5,5.11928813 4.61928813,4 6,4 C7.38071187,4 8.5,5.11928813 8.5,6.5 C8.5,7.88071187 7.38071187,9 6,9 Z"></path>
                        </mask>
                        <path d="M6.26440992,15.7307186 C6.93347423,14.9063358 7.60264855,14.0149 8.22586297,13.0912072 C9.04275365,11.8804586 9.71689511,10.7072235 10.1989679,9.61309034 C10.7233153,8.42300914 11,7.36963087 11,6.5 C11,3.73523729 8.76476271,1.5 6,1.5 C3.23523729,1.5 1,3.73523729 1,6.5 C1,7.36963087 1.27668472,8.42300914 1.80103206,9.61309034 C2.28310489,10.7072235 2.95724635,11.8804586 3.77413703,13.0912072 C4.39735145,14.0149 5.06652577,14.9063358 5.73559008,15.7307186 C5.82640108,15.8426108 5.91464951,15.9500883 6,16.0529026 C6.08535049,15.9500883 6.17359892,15.8426108 6.26440992,15.7307186 Z M6,0.666666667 C9.225,0.666666667 11.8333333,3.275 11.8333333,6.5 C11.8333333,10.875 6,17.3333333 6,17.3333333 C6,17.3333333 0.166666667,10.875 0.166666667,6.5 C0.166666667,3.275 2.775,0.666666667 6,0.666666667 Z M6,8.16666667 C6.92047458,8.16666667 7.66666667,7.42047458 7.66666667,6.5 C7.66666667,5.57952542 6.92047458,4.83333333 6,4.83333333 C5.07952542,4.83333333 4.33333333,5.57952542 4.33333333,6.5 C4.33333333,7.42047458 5.07952542,8.16666667 6,8.16666667 Z M6,9 C4.61928813,9 3.5,7.88071187 3.5,6.5 C3.5,5.11928813 4.61928813,4 6,4 C7.38071187,4 8.5,5.11928813 8.5,6.5 C8.5,7.88071187 7.38071187,9 6,9 Z" fill="#000000" fill-rule="nonzero"></path>
                    </g>
                </g>
            </g>
        </g>
    </g>
</svg>

<svg width="12" height="18" viewBox="0 0 12 18" xmlns="http://www.w3.org/2000/svg">
    <title>
        location
    </title>
    <path d="M6.264 15.73a37.549 37.549 0 0 0 1.962-2.639c.817-1.21 1.49-2.384 1.973-3.478C10.723 8.423 11 7.37 11 6.5c0-2.765-2.235-5-5-5s-5 2.235-5 5c0 .87.277 1.923.801 3.113.482 1.094 1.156 2.267 1.973 3.478A37.549 37.549 0 0 0 6 16.053c.085-.103.174-.21.264-.322zM6 .668A5.83 5.83 0 0 1 11.833 6.5C11.833 10.875 6 17.333 6 17.333S.167 10.875.167 6.5A5.83 5.83 0 0 1 6 .667zm0 7.5a1.667 1.667 0 1 0 0-3.334 1.667 1.667 0 0 0 0 3.334zM6 9a2.5 2.5 0 1 1 0-5 2.5 2.5 0 0 1 0 5z" fill="#000" fill-rule="nonzero"/>
</svg>
